X:205
T:Merrily Dance the Quakers Wife,3voices. JGi.205
M:6/8
L:1/8
Q:3/8=120
S:Joshua Gibbons MS,1823,Tealby,Lincs.
N:Last bar in top two parts damaged in MS
R:jig
O:Tealby,Lincolnshire
Z:VMP/R.Greig, 2009
K:C
[V:1]G|cde G2G|f2ed2B|cdeG2G|A2Bc3:|
[V:2]z|cBcE2E|d2cB2G|cBcE2E|F3F3:|
[V:3]z|C,2C,C,3|G,3G,,3|C,2B,,C,3|F,2G,C,3:|
[V:1]c2eg2e|a2fg2e|c2eg2f|(e3g3)|
[V:2]G2ce2c|f2de2c|G2ce2c|(c3B3)|
[V:3]C,3C,3|F,,3C,3|C,3C,3|G,,6|
[V:1]a2fg2e|f2ed2B|cdeG2G|A2Bc3|]
[V:2]f2de2c|d2cB2G|EGc E2c|F3F3|]
[V:3]F,,3C,3|G,3G,,3|C,2C,C,3|F,2G,C,3|]

